symbols/web/directions_car/materialsymbolssharp/directions_car_wght600grad200fill1_48px.svg

<svg xmlns="http://www.w3.org/2000/svg" height="48" width="48"><path d="M10.1 38.6v4.2H5.2V24.15l4.95-15h27.7l5 15V42.8h-5v-4.2Zm.35-17.4H37.6l-2.65-8h-21.9Zm3.95 11q1.15 0 1.95-.825t.8-1.925q0-1.2-.825-2.025T14.45 26.6q-1.25 0-2.05.825-.8.825-.8 2.025 0 1.15.8 1.95t2 .8Zm19.25 0q1.2 0 2-.825t.8-1.925q0-1.2-.8-2.025t-2-.825q-1.15 0-1.95.825t-.8 2.025q0 1.15.825 1.95t1.925.8Z"/></svg>

<svg xmlns="http://www.w3.org/2000/svg" height="48" width="48"><path d="M10.1 38.6V42.8H5.2V24.15L10.15 9.15H37.85L42.85 24.15V42.8H37.85V38.6ZM10.45 21.2H37.6L34.95 13.2H13.05ZM14.4 32.2Q15.55 32.2 16.35 31.375Q17.15 30.55 17.15 29.45Q17.15 28.25 16.325 27.425Q15.5 26.6 14.45 26.6Q13.2 26.6 12.4 27.425Q11.6 28.25 11.6 29.45Q11.6 30.6 12.4 31.4Q13.2 32.2 14.4 32.2ZM33.65 32.2Q34.85 32.2 35.65 31.375Q36.45 30.55 36.45 29.45Q36.45 28.25 35.65 27.425Q34.85 26.6 33.65 26.6Q32.5 26.6 31.7 27.425Q30.9 28.25 30.9 29.45Q30.9 30.6 31.725 31.4Q32.55 32.2 33.65 32.2Z"/></svg>
